X:222
T: DAS KANAPEE IST MEIN VERGNUEGEN
N: B0710
O: Europa, Mitteleuropa, Deutschland, Thueringen
R: Scherz - Lied
M: 2/4
L: 1/8
K: Bb
F | B2AG | F2F2 | G2A2 | BFF
F | GFED | C2F2 | F2z
F | B2AG | F2F2 | G2A2 | BFF
F | GFED | C2F2 | F2z
F | DFFF | GFF
F | DFFF | GFF
F | B2c2 | d2B2 | c2A2 | B2z

